X:19
T:Red Prairie Dawn - A
M:4/4
K:A
|:"A"efed cBAc | BAcA "D"F3F | "A"EFAB cBAB | cefc ecBA|
|:"F#m"c4 A4 | "D"A4 (C2>B,2) | "A"A,2A2 EFAB |c2fc ecBA|


